X: 31145
T: Paddy Fahey's
R: reel
M: 4/4
K: Gmajor
BG~G2 BdcA|BGBd cAFA|BG~G2 B^cdg|fgaf g2gd|
BG~G2 Bdcd|BGBd cAFA|BG~G2 B^cde|1 fgaf g3c:|2 fgaf ~g3a||
bgaf dgge|fdcA FGAz|gbaf gfd^c|dggd g2ga|
bg~g2 dg~g2|fdcA FGAc|BG~G2 B^cdg|fgaf g3a|
bg~g2 dgge|fdcA FGAz|bgfa gfd^c|dggd ~g3a|
bg~g2 dg~g2|fdcA FGAc|BG~G2 B^cdg|(3efg af g2gd||

